X:8
T:Triumph. JBAT8.036
B:John Baty MS#8 (MU187), c1850, Northumberland
Z:Village Music Project 2016 Peter Dunk
N:Repeat bar marks replaced with full notation.
M:2/4
L:1/16
Q:1/4=100
K:G
|:(ge)|(dB)(GB) (dc)(AB)|G2g2 e2g2|(dB)(GB) (dc)(AF)|G2B2G2:|
|:z2|A2>c2B2d2|"NB"A2>c2B2d2|A2>c2B2d2|dcBA G2:|
|:D2|BGBc d2 cB|AGAB c2 BA|GABc defg|dcBA !D.C.!G2:|

